!!!!SEGMENT: pl-cz--iii-257--006_gotschalk-filip--requiem-in-b-sanctus.krn
!!!cenid: 18xx:105
!!!COM: Gotschalk, Filip
!!!COM-rismid: pe30020320
!!!CDT: 1760-1809
!!!CNT:
!!!OPR: Requiem in B
!!!OTL: Sanctus
!!!OMV: 006
!!!PDT:
!!!AGN: Sacred; Requiem
!!!SMS-siglum: PL-CZ
!!!SMS-shelfmark: III-257
!!!SMS-shelfwork: 001-006 M
!!!NIFC-rismid:
!!!URL-scan: http://repozytorium.nifc.pl/skany/pl-cz-nut--iii-257
!!!ONB-nifc:
**kern	**fb	**kern	**dynam	**kern	**dynam	**kern	**text	**kern	**text	**kern	**text	**kern	**text	**kern	**dynam	**kern	**kern	**kern
*part11	*	*part10	*part10	*part9	*part9	*part8	*part8	*part7	*part7	*part6	*part6	*part5	*part5	*part4	*part4	*part3	*part2	*part1
*staff11	*	*staff10	*	*staff9	*	*staff8	*staff8	*staff7	*staff7	*staff6	*staff6	*staff5	*staff5	*staff4	*	*staff3	*staff2	*staff1
*I"Organo	*	*I"Violino Secondo	*	*I"Violino Primo	*	*I"Basso	*	*I"Tenore	*	*I"Alto	*	*I"Canto	*	*I"Cornu Secondo in B	*	*I"Cornu Primo in B	*I"Clarinetto Secundo	*I"Clarinetto Primo
*I'Org	*	*I'Vn II	*	*I'Vn I	*	*I'B	*	*I'T	*	*I'A	*	*I'C	*	*I'Cor II	*	*I'Cor I	*I'Cl II	*I'Cl I
*clefC1	*	*clefG2	*	*clefG2	*	*clefF4	*	*clefC4	*	*clefC3	*	*clefC1	*	*clefG2	*	*clefG2	*clefG2	*clefG2
*	*	*	*	*	*	*	*	*	*	*	*	*	*	*ITrd1c2	*	*ITrd1c2	*	*
*k[b-e-]	*	*k[b-e-]	*	*k[b-e-]	*	*k[b-e-]	*	*k[b-e-]	*	*k[b-e-]	*	*k[b-e-]	*	*k[b-e-]	*	*k[b-e-]	*k[b-e-]	*k[b-e-]
*B-:	*	*B-:	*	*B-:	*	*B-:	*	*B-:	*	*B-:	*	*B-:	*	*	*	*	*B-:	*B-:
*M4/4	*	*M4/4	*	*M4/4	*	*M4/4	*	*M4/4	*	*M4/4	*	*M4/4	*	*M4/4	*	*M4/4	*M4/4	*M4/4
*met(c)	*	*met(c)	*	*met(c)	*	*met(c)	*	*met(c)	*	*met(c)	*	*met(c)	*	*met(c)	*	*met(c)	*met(c)	*met(c)
=1	=1	=1	=1	=1	=1	=1	=1	=1	=1	=1	=1	=1	=1	=1	=1	=1	=1	=1
!	!	!	!	!	!	!	!	!	!	!	!	!LO:TX:a:t=problem:laseczki w dół z prawej/lewej strony	!	!	!	!	!	!
!LO:TX:a:t=problem:laseczki w dół z prawej/lewej strony	!	!	!	!	!	!	!	!	!	!	!	!LO:TX:a:t=problem:bemol ee- przy kluczu oktawę wyżej	!	!	!	!	!	!
!LO:TX:a:t=problem:bemol E- przy kluczu oktawę niżej	!	!	!	!LO:TX:a:t=problem:laseczki w dół z prawej/lewej strony	!	!	!	!	!	!	!	!LO:TX:a:t=Tutti	!	!	!	!	!	!
!LO:TX:a:t=Tutti	!	!LO:TX:a:t=problem:bemole przy klucze odwrotnie	!	!LO:TX:a:t=Solo	!	!LO:TX:a:t=problem:bemole przy klucze odwrotnie	!	!LO:TX:a:t=problem:bemol E- przy kluczu oktawę niżej	!	!LO:TX:a:t=problem:laseczki w dół z prawej/lewej strony	!	!LO:TX:a:t=Solo	!	!	!	!LO:TX:a:t=SIC&colon;t=błędne oznaczenie tempa Andante	!	!LO:TX:a:B:t=Adagio
4b-	.	4d	p	4b-	p	2r	.	2r	.	4d	Sanc-	4b-	Sanc-	2r	.	2r	2r	2r
4dd	.	4f	.	4dd	.	.	.	.	.	4f	-tus	4dd	-tus	.	.	.	.	.
*clefF4	*	*	*	*	*	*2\right	*	*	*	*2\right	*	*	*	*	*	*	*	*
!	!	!	!	!	!	!LO:TX:a:t=problem:laseczki w dół z prawej/lewej strony	!	!LO:TX:a:t=problem:laseczki w dół z prawej/lewej strony	!	!	!	!	!	!	!	!LO:TX:a:t=Tutti	!	!
4F	5 7	4e-	.	4cc\	.	2F	Sanc-	(>4e-	Sanc-	2f	{Sanc-	(>4cc	sanc-	4.f	f	4cc	4r	4r
.	4 6	.	.	.	.	.	.	.	.	.	.	.	.	.	.	.	.	.
4FF	5 3	8dL	.	8b-L\	.	.	.	8dL	.	.	.	8b-L	.	.	.	8b-L\	8ddL	8bb-L
.	.	8cJ	.	8aJ	.	.	.	8cJ)	.	.	.	8aJ)	.	8f	.	8fJ/	8ccJ	8aaJ
=2	=2	=2	=2	=2	=2	=2	=2	=2	=2	=2	=2	=2	=2	=2	=2	=2	=2	=2
!LO:TX:a:t=problem:niejednoznaczny zapis artykulacji w t. 2	!	!	!	!	!	!	!	!	!	!	!	!	!	!	!	!	!	!
*^	*	*	*	*	*	*	*	*	*	*	*	*	*	*	*	*	*	*
8BB-'L/	2ryy	.	4d	.	8b-L	f	8B-	-tus	4d	-tus	4f	-tus}	4b-	-tus	4d	.	4b-	4dd	4bb-
8B-'\	.	.	.	.	8b-	.	8B-	Sanc-	.	.	.	.	.	.	.	.	.	.	.
8F'\	.	.	4r	.	8f	.	8F	-tus	4r	.	4r	.	4r	.	4r	.	4r	4r	4r
8D'J\	.	.	.	.	8dJ 8f	.	8D	{Sanc-	.	.	.	.	.	.	.	.	.	.	.
*clefC1	*	*	*	*	*	*	*	*	*	*	*	*	*	*	*	*	*	*	*
!	!	!	!LO:TX:a:t=problem:laseczki w dół z prawej/lewej strony	!	!	!	!	!	!	!	!	!	!	!	!	!	!	!	!
4dd	4b-	.	4b-	.	4dd	p	4BB-	-tus}	4B-	sanc-	2r	.	4dd	sanc-	2r	.	2r	2r	2r
4ff	4dd	.	4dd	.	4ff	.	4r	.	4d	-tus	.	.	4ff	-tus	.	.	.	.	.
*v	*v	*	*	*	*	*	*	*	*	*	*	*	*	*	*	*	*	*	*
*clefF4	*	*	*	*	*	*	*	*	*	*	*	*	*	*	*	*	*	*
!LO:LB:g=original	!	!	!	!	!	!	!	!	!	!	!	!	!	!	!	!	!	!
=3	=3	=3	=3	=3	=3	=3	=3	=3	=3	=3	=3	=3	=3	=3	=3	=3	=3	=3
.	.	.	.	8qqff/	.	.	.	.	.	.	.	8qqff/	.	.	.	.	.	.
2F	7 5	4cc	.	4ee-	.	2F	Sanc-	(>4c	Sanc-	2f	{San-	4ee-	sanc-	4cc	.	4ee-	4cc	4ee-
.	6 4	8b-L\	.	8ddL	.	.	.	8B-L	-tus	.	.	8ddL	.	8b-L	.	8ddL	8b-L\	8ddL
.	5 3	8aJ	.	8ccJ	.	.	.	8AJ)	.	.	.	8ccJ	.	8fJ	.	8ccJ	8aJ	8ccJ
!LO:TX:a:t=problem:niejednoznaczny zapis artykulacji w t. 3	!	!	!	!	!	!	!	!LO:LB:g=original	!	!	!	!LO:TX:a:t=problem: ćwierćnuta z kropką	!	!	!	!	!	!
8BB-'L	.	4b-	.	8ddL	f	8B-	-tus	4B-	.	4f	-ctus}	4dd	-ctus	4b-	.	4dd	4b-	4dd
8BB-'	.	.	.	8dd	.	8BB-	{Sanc-	.	.	.	.	.	.	.	.	.	.	.
8D'	.	4r	.	8b-	.	8D/	-tus}	4r	.	4r	.	4r	.	4r	.	4r	4r	4r
8F'J	.	.	.	8fJ	.	8F/	Sanc-	.	.	.	.	.	.	.	.	.	.	.
!	!	!LO:LB:g=original	!	!LO:LB:g=original	!	!LO:LB:g=original	!	!LO:PB:g=original	!	!	!	!	!	!	!	!	!	!
=4	=4	=4	=4	=4	=4	=4	=4	=4	=4	=4	=4	=4	=4	=4	=4	=4	=4	=4
!	!	!	!	!	!	!	!	!	!	!	!	!LO:TX:a:t=Solo	!	!	!	!	!	!
8B-	.	2r	.	4b-	.	4B-	-tus	2r	.	8d	Sanc-	8b-	Sanc-	2r	.	2r	2r	2r
8r	.	.	.	.	.	.	.	.	.	8d	-tus	8b-	-tus	.	.	.	.	.
4r	.	.	.	4r	.	4r	.	.	.	8d	Do-	8b-	Do-	.	.	.	.	.
!	!	!	!	!	!	!	!	!	!	!LO:LB:g=original	!	!	!	!	!	!	!	!
.	.	.	.	.	.	.	.	.	.	16d	-mi-	16b-	-mi-	.	.	.	.	.
.	.	.	.	.	.	.	.	.	.	16d	-nus	16b-	-nus	.	.	.	.	.
*tremolo	*	*	*	*	*	*	*	*	*	*	*	*2\right	*	*	*	*	*tremolo	*
8cL	7 n	16eenKL	.	16ccKL	p	8c	De-	8en	De-	8g	De-	8b-	De-	8fL	.	8ccL	8ggL	8bb-L
.	.	8gg	.	8cc 8bb-	.	.	.	.	.	.	.	.	.	.	.	.	.	.
8c	.	.	.	.	.	8c	-us	8e	-us	8g	-us	8b-	-us	8f	.	8cc	8gg	8bb-
.	.	8gg	.	8cc 8bb-	.	.	.	.	.	.	.	.	.	.	.	.	.	.
8c	.	.	.	.	.	8c	Sa-	8e	Sa-	8g	Sa-	8b-	Sa-	8f	.	8cc	8gg	8bb-
.	.	8gg	.	8cc 8bb-	.	.	.	.	.	.	.	.	.	.	.	.	.	.
8cJ	.	.	.	.	.	8c	-ba-	8e	-ba-	8g	-ba-	8b-	-ba-	8fJ	.	8ccJ	8ggJ	8bb-J
.	.	16ggJk	.	16ccJk 16bb-	.	.	.	.	.	.	.	.	.	.	.	.	.	.
!	!	!	!	!	!	!	!	!	!	!	!	!	!	!	!	!LO:LB:g=original	!	!
=5	=5	=5	=5	=5	=5	=5	=5	=5	=5	=5	=5	=5	=5	=5	=5	=5	=5	=5
!LO:TX:a:t=Tutti	!	!	!	!	!	!	!	!	!	!	!	!	!	!	!	!	!LO:TX:a:t=problem:laseczki półnut z lewej strony	!LO:TX:a:t=problem:laseczki półnut z lewej strony
*2\right	*	*2\right	*	*2\right	*	*	*	*2\right	*	*	*	*	*	*	*	*2\right	*2\right	*2\right
2F	.	2cc	.	2cc 2aa	.	2F	-oth	2c	-oth	2f	-oth	2a	-oth.	2f	.	2cc	2ff	2aa
!	!	!	!	!	!	!	!	!LO:TX:a:t=Solo	!	!	!	!	!	!	!	!	!	!
2r	.	2r	.	2r	.	8BB-	Sanc-	8B-	Sanc-	2r	.	2r	.	2r	.	2r	2r	2r
.	.	.	.	.	.	8BB-	-tus	8B-	-tus	.	.	.	.	.	.	.	.	.
.	.	.	.	.	.	8BB-	Do-	8B-	Do-	.	.	.	.	.	.	.	.	.
.	.	.	.	.	.	16BB-	-mi-	16B-	-mi-	.	.	.	.	.	.	.	.	.
.	.	.	.	.	.	16BB-	-nus	16B-	-nus	.	.	.	.	.	.	.	.	.
!	!	!	!	!	!	!	!	!	!	!	!	!LO:LB:g=original	!	!LO:LB:g=original	!	!	!	!
=6	=6	=6	=6	=6	=6	=6	=6	=6	=6	=6	=6	=6	=6	=6	=6	=6	=6	=6
!	!	!	!	!	!	!	!	!LO:TX:a:t=Tutti	!	!	!	!	!	!	!	!	!	!
*	*	*tremolo	*	*tremolo	*	*	*	*	*	*	*	*	*	*	*	*	*	*tremolo
8cL	.	8enL	.	16ccLL 16bb-	.	8G	De-	8B-	De-	8g	De-	8cc	De-	8fL	.	8ccL	8ggL	8bb-L
.	.	.	.	16cc 16bb-	.	.	.	.	.	.	.	.	.	.	.	.	.	.
8c	.	8e	.	16cc 16bb-	.	8G	-us	8B-	-us	8g	-us	8cc	-us	8f	.	8cc	8gg	8bb-
.	.	.	.	16cc 16bb-	.	.	.	.	.	.	.	.	.	.	.	.	.	.
8c	.	8e	.	16cc 16bb-	.	8G	Sa-	8B-	Sa-	8g	Sa-	8cc	Sa-	8f	.	8cc	8gg	8bb-
.	.	.	.	16cc 16bb-	.	.	.	.	.	.	.	.	.	.	.	.	.	.
8cJ	.	8eJ	.	16cc 16bb-	.	8G	-ba-	8B-	-ba-	8g	-ba-	8cc	-ba-	8fJ	.	8ccJ	8ggJ	8bb-J
.	.	.	.	16ccJJ 16bb-	.	.	.	.	.	.	.	.	.	.	.	.	.	.
2F	.	2f 2a	.	2cc 2aa	.	2F	-oth	2A	-oth	2f	-oth.	2cc	-oth,	2f	.	2cc	2ff	2aa
*clefC1	*	*Xtremolo	*	*Xtremolo	*	*	*	*	*	*	*	*	*	*	*	*	*Xtremolo	*Xtremolo
!	!	!	!	!	!	!LO:LB:g=original	!	!LO:LB:g=original	!	!LO:LB:g=original	!	!	!	!	!	!	!LO:LB:g=original	!LO:LB:g=original
=7	=7	=7	=7	=7	=7	=7	=7	=7	=7	=7	=7	=7	=7	=7	=7	=7	=7	=7
!	!	!	!	!	!	!LO:TX:a:t=problem:znak powtórki od początku	!	!	!	!	!	!	!	!	!	!	!	!
4b-	.	4d	p	4b-	p	2r	.	2r	.	4d	Sanc-	4b-	Sanc-	2r	.	2r	2r	2r
4dd	.	4f	.	4dd	.	.	.	.	.	4f	-tus	4dd	-tus	.	.	.	.	.
*clefF4	*	*	*	*	*	*	*	*	*	*	*	*	*	*	*	*	*	*
.	.	.	.	8qqdd/	.	.	.	.	.	.	.	.	.	.	.	.	.	.
4F	5 7	4e-X	.	4cc	.	2F	Sanc-	(>4e-	Sanc-	2f	{Sanc-	(>4cc	Sanc-	4f	.	4cc	4r	4r
4FF	4 6	8dL	.	8b-L\	.	.	.	8dL	.	.	.	8b-L	.	8dL	.	8b-L	8ddL	8bb-L
.	3 5	8cJ	.	8aJ	.	.	.	8cJ)	.	.	.	8aJ)	.	8fJ	.	8ccJ	8ccJ	8aaJ
!LO:PB:g=original	!	!	!	!	!	!	!	!	!	!	!	!	!	!	!	!	!	!
=8	=8	=8	=8	=8	=8	=8	=8	=8	=8	=8	=8	=8	=8	=8	=8	=8	=8	=8
!LO:TX:a:t=problem:niejednoznaczny zapis artykulacji w t. 8	!	!	!	!	!	!	!	!	!	!	!	!	!	!	!	!	!	!
*^	*	*	*	*	*	*	*	*	*	*	*	*	*	*	*	*	*	*
8BB-'L\	2ryy	.	4d	.	2b-	.	8B-	-tus	4d	-tus	4f	-tus}	2b-	-tus	4d	.	4b-	4dd	4bb-
8B-'/	.	.	.	.	.	.	8B-	Sanc-	.	.	.	.	.	.	.	.	.	.	.
8F'/	.	.	4r	.	.	.	8F	-tus	4r	.	4r	.	.	.	4r	.	4r	4r	4r
8D'J/	.	.	.	.	.	.	8D	{Sanc-	.	.	.	.	.	.	.	.	.	.	.
*clefC1	*	*	*	*	*	*	*	*	*	*	*	*	*	*	*	*	*	*	*
4dd	4b-	.	4b-	.	4dd	.	4BB-	-tus}	4B-	Sanc-	2r	.	4dd	Sanc-	2r	.	2r	2r	2r
.	.	.	.	.	8qqgg/	.	.	.	.	.	.	.	.	.	.	.	.	.	.
4ff	4dd	.	4dd	.	4ff	.	4r	.	4d	-tus	.	.	4ff	-tus	.	.	.	.	.
*v	*v	*	*	*	*	*	*	*	*	*	*	*	*	*	*	*	*	*	*
*clefF4	*	*	*	*	*	*	*	*	*	*	*	*	*	*	*	*	*	*
=9	=9	=9	=9	=9	=9	=9	=9	=9	=9	=9	=9	=9	=9	=9	=9	=9	=9	=9
!	!	!	!	!	!	!	!	!	!	!	!	!LO:TX:a:t=problem:niejednoznaczny zapis łuku	!	!	!	!	!	!
.	.	8qqdd/	.	8qqff/	.	.	.	.	.	.	.	8qqff/	.	.	.	.	.	.
2F	7 5	4cc	.	4ee-	.	2F	Sanc-	(>4c	Sanc-	2f	Sanc-	(>4ee-	Sanc-	4cc	.	4ee-	4cc	4ee-
.	6 4	8b-L	.	8ddL	.	.	.	8B-L	.	.	.	8ddL)	.	8b-L\	.	8ddL	8b-L\	8ddL
.	5 3	8anJ	.	8ccJ	.	.	.	8AJ)	.	.	.	8ccJ	.	8fJ/	.	8ccJ	8aJ	8ccJ
!LO:TX:a:t=problem:niejednoznaczny zapis artykulacji w t. 9	!	!	!	!	!	!	!	!LO:LB:g=original	!	!	!	!	!	!	!	!	!	!
8BB-'L	.	4b-	.	4dd	.	8B-	-tus	4B-	-tus	4f	-tus	4dd	-tus	4b-	.	4dd	4b-	4dd
8BB-'	.	.	.	.	.	8BB-	{Sanc-	.	.	.	.	.	.	.	.	.	.	.
8D'	.	4r	.	4r	.	8D	-tus}	4r	.	4r	.	4r	.	4r	.	4r	4r	4r
8F'J	.	.	.	.	.	8F	Sanc-	.	.	.	.	.	.	.	.	.	.	.
!	!	!LO:LB:g=original	!	!LO:LB:g=original	!	!LO:LB:g=original	!	!	!	!	!	!	!	!	!	!LO:LB:g=original	!	!
=10	=10	=10	=10	=10	=10	=10	=10	=10	=10	=10	=10	=10	=10	=10	=10	=10	=10	=10
8B-	.	2r	.	2r	.	4B-	-tus	2r	.	8d	Sanc-	8b-	Sanc-	2r	.	2r	2r	2r
8r	.	.	.	.	.	.	.	.	.	8d	-tus	8b-	-tus	.	.	.	.	.
4r	.	.	.	.	.	4r	.	.	.	8d	Do-	8b-	Do-	.	.	.	.	.
.	.	.	.	.	.	.	.	.	.	16d	-mi-	16b-	-mi-	.	.	.	.	.
.	.	.	.	.	.	.	.	.	.	16d	-nus	16b-	-nus	.	.	.	.	.
!	!	!	!	!	!	!	!	!	!	!	!	!	!	!LO:LB:g=original	!	!	!	!
8cL	7 n	16ccKL 16gg	.	16bb-KL	.	8c	De-	8en	De-	8g	De-	8b-	De-	8ccL	.	8ccL	8ggL	8bb-L
.	.	8cc 8gg	.	8bb-	.	.	.	.	.	.	.	.	.	.	.	.	.	.
8c	.	.	.	.	.	8c	-us	8e	-us	8g	-us	8b-	-us	8cc	.	8cc	8gg	8bb-
.	.	8cc 8gg	.	8bb-	.	.	.	.	.	.	.	.	.	.	.	.	.	.
!	!	!	!	!	!	!	!	!	!	!LO:LB:g=original	!	!	!	!	!	!	!	!
8c	.	.	.	.	.	8c	Sa-	8e	Sa-	8g	Sa-	8b-	Sa-	8cc	.	8cc	8gg	8bb-
.	.	8cc 8gg	.	8bb-	.	.	.	.	.	.	.	.	.	.	.	.	.	.
8cJ	.	.	.	.	.	8c	-ba-	8e	-ba-	8g	-ba-	8b-	-ba-	8ccJ	.	8ccJ	8ggJ	8bb-J
.	.	16ccJk 16gg	.	16bb-Jk	.	.	.	.	.	.	.	.	.	.	.	.	.	.
!	!	!	!	!	!	!	!	!LO:LB:g=original	!	!	!	!	!	!	!	!	!	!
=11	=11	=11	=11	=11	=11	=11	=11	=11	=11	=11	=11	=11	=11	=11	=11	=11	=11	=11
2F	.	2cc	.	2cc 2aa	.	2F	-oth	2c	-oth	2f	-oth.	2a	-oth.	2f	.	2cc	2ff	2aa
!	!	!	!	!	!	!	!	!LO:TX:a:t=Solo	!	!	!	!	!	!	!	!	!	!
2r	.	2r	.	2r	.	8BB-	Sanc-	8B-	Sanc-	2r	.	2r	.	2r	.	2r	2r	2r
.	.	.	.	.	.	8BB-	-tus	8B-	-tus	.	.	.	.	.	.	.	.	.
.	.	.	.	.	.	8BB-	Do-	8B-	Do-	.	.	.	.	.	.	.	.	.
.	.	.	.	.	.	16BB-	-mi-	16B-	-mi-	.	.	.	.	.	.	.	.	.
.	.	.	.	.	.	16BB-	-nus	16B-	-nus	.	.	.	.	.	.	.	.	.
!	!	!	!	!	!	!	!	!	!	!	!	!LO:LB:g=original	!	!	!	!	!	!
=12	=12	=12	=12	=12	=12	=12	=12	=12	=12	=12	=12	=12	=12	=12	=12	=12	=12	=12
!	!	!	!	!	!	!	!	!LO:TX:a:t=Tutti	!	!	!	!	!	!	!	!	!	!
*	*	*	*	*	*	*	*	*	*	*	*	*	*	*tremolo	*	*tremolo	*	*
8cL	.	16ccKL 16gg	.	16bb-KL	.	8G	De-	8B-	De-	8g	De-	8b-	De-	8fL	.	8ccL	4r	4r
.	.	8cc 8gg	.	8bb-	.	.	.	.	.	.	.	.	.	.	.	.	.	.
8c	.	.	.	.	.	8G	-us	8B-	-us	8g	-us	8b-	-us	8f	.	8cc	.	.
.	.	8cc 8gg	.	8bb-	.	.	.	.	.	.	.	.	.	.	.	.	.	.
8c	.	.	.	.	.	8G	Sa-	8B-	Sa-	8g	Sa-	8b-	Sa-	8f	.	8cc	8ggL	8bb-L
.	.	8cc 8gg	.	8bb-	.	.	.	.	.	.	.	.	.	.	.	.	.	.
8cJ	.	.	.	.	.	8G	-ba-	8B-	-ba-	8g	-ba-	8b-	-ba-	8fJ	.	8ccJ	8ccJ	8bb-J
.	.	16ccJk 16gg	.	16bb-Jk	.	.	.	.	.	.	.	.	.	.	.	.	.	.
*Xtremolo	*	*	*	*	*	*	*	*	*	*	*	*	*	*Xtremolo	*	*Xtremolo	*	*
2F	.	2cc	.	2cc 2aa	.	2F	-oth	2A	-oth.	2f	-oth.	2a	-oth.	2f	.	2cc	2ff	2aa
==	==	==	==	==	==	==	==	==	==	==	==	==	==	==	==	==	==	==
*-	*-	*-	*-	*-	*-	*-	*-	*-	*-	*-	*-	*-	*-	*-	*-	*-	*-	*-
!!!system-decoration: [(s1,s2)][(s3,s4)][(s5,s6,s7,s8)][(s9,s10)][(s11)]
!!!RDF**kern: > = above
!!!ENC: Anna Matuszewska
!!!END: 2020-03-25
